X:1
T:Title
%%score 1 2 3 4
L:1/8
M:4/2
K:F
V:1 treble nm="Part_1"
V:2 treble-8 nm="Part_2"
V:3 treble-8 nm="Part_3"
V:4 bass nm="Part_4"
V:1
 A4 A2 A2 A2 A2 G4- | G4 z4 B4 B2 B2 | (3:2:2A16 A8 | (3:2:2G16 F8 | E4 E2 EE A4 E2 EE | %5
 A4 G4 B2 B2 A4 | A4 A2 A2 A2 A2 G4- | G4 z4 B4 B2 B2 | (3:2:2A16 A8 | (3:2:2G16 F8 | %10
 E4 E2 EE A4 G4 | B2 B2 A4 A4 A4 | A6 G2 F2 E2 D4 | C4 B8 G4- | G4 E4 E4 E4 | E4 E4 D8 | %16
 C4 C2 CC C2 C2 C2 C2 | F2 ED E2 F2 C2 C2 C2 C2 | F4 E4 D4 C4 | D2 DD D2 D2 D2 D2 G4 | z8 F4 A4 | %21
 B4 A4 G8 | F4 F4 E8 | D4 A4 A4 F2 A2 | G2 F2 F8 E4 | F16 |] %26
V:2
 c4 c2 c2 c4 e4 | e2 e2 f4 f4 f2 f2 | (3:2:2f16 f8 | (3:2:2e16 d8 | c4 c2 cc e4 c2 cc | %5
 e2 e2 e4 f4 c4 | c4 c2 c2 c4 e4 | e2 e2 f4 f4 f2 f2 | (3:2:2f16 f8 | (3:2:2e16 d8 | %10
 c4 c2 cc e2 e2 e4 | f4 c4 c4 c4 | f6 e2 d2 c2 B4 | F4 f8 e4- | e4 c4 c4 c4 | c4 c4 B8 | %16
 A8 A2 AA A2 A2 | A2 A2 G2 A2 A2 A2 G2 G2 | F2 F2 c2 c2 B4 A4 | z4 B2 BB F2 B2 B2 B2 | %20
 d4 G4 B4 F4 | z4 f4 e8 | d4 d4 c4 c4 | f4 f4 c4 A4 | d4 B4 c8 | c16 |] %26
V:3
 z8 z2 c2 c2 c2 | c4 d4 d2 d2 d2 d2 | (3:2:2c16 c8 | (3:2:2c16 A8 | A4 A2 AA c4 G2 GG | %5
 c2 c2 c2 c2 d4 z4 | F4 F2 F2 F2 c2 c2 c2 | c4 d4 d2 d2 d2 d2 | (3:2:2c16 c8 | (3:2:2c16 A8 | %10
 A4 A2 AA c2 c2 c2 c2 | d4 z4 F4 F4 | D6 E2 F2 C2 G4 | A4 d8 c4- | c4 G4 G4 G4 | A4 A4 F8 | %16
 F8 z4 C2 CC | C2 C2 C2 C2 F4 E4 | D4 C4 z4 F2 FF | F2 F2 F2 F2 B4 z2 B2 | B2 B2 _e4 d4 c4 | %21
 B4 c4 c8 | A4 B4 G6 A2 | B2 AG F2 G2 A2 B2 c2 A2 | B2 A2 G2 F2 G8 | F16 |] %26
V:4
 F,4 F,2 F,2 F,2 F,2 C,4- | C,4 B,4 B,2 B,2 B,2 B,,2 | (3:2:2F,16 F,8 | (3:2:2C,16 D,8 | %4
 A,,8 A,,2 A,,A,, C,4 | A,,2 A,,A,, C,2 C,2 B,,2 B,,2 F,4 | z8 z2 F,2 C,4- | %7
 C,4 B,4 B,2 B,2 B,2 B,,2 | (3:2:2F,16 F,8 | (3:2:2C,16 D,8 | A,,8 A,,2 A,,A,, C,2 C,2 | %11
 B,,2 B,,2 F,4 z8 | z16 | z4 B,,8 C,4- | C,4 C,4 C,4 C,4 | A,,4 A,,4 B,,8 | %16
 F,,8 F,,2 F,,F,, F,,2 F,,2 | F,,2 F,,2 C,2 F,,2 F,,2 F,,2 C,4 | z16 | %19
 B,,2 B,,B,, B,,2 B,,2 B,,2 B,,2 _E,4 | D,4 C,4 B,,4 z2 F,2 | G,4 F,2 F,2 C,8 | D,4 B,,4 C,4 C,4 | %23
 z8 F,4 F,4 | B,,4 D,4 C,8 | F,,16 |] %26

